X: 345
M:3/2
L:1/8
K:F
fgaf f2F2f3f | gabag2G2g3g | agab agfe dcBA | BAGFG2e2f4 ||
fgag f2F2 f3f | gabag2G2g3g | agab agfe dcBA | BAGF G2e2f3_e |
dfdB dfbf dfdB | AcAF Acfc AcAF | EGEC EGcG EGEC | EGFAG2=B2"D.C."c4 ||

